local/share/icons/dracula-icons-main/scalable/mimetypes/application-x-kplato.svg

<?xml version="1.0" encoding="UTF-8"?>
<svg xmlns="http://www.w3.org/2000/svg" xmlns:xlink="http://www.w3.org/1999/xlink" width="64" height="64" viewBox="0 0 64 64">
<defs>
<filter id="filter-remove-color" x="0%" y="0%" width="100%" height="100%">
<feColorMatrix color-interpolation-filters="sRGB" values="0 0 0 0 1 0 0 0 0 1 0 0 0 0 1 0 0 0 1 0" />
</filter>
<mask id="mask-0">
<g filter="url(#filter-remove-color)">
<rect x="-6.4" y="-6.4" width="76.8" height="76.8" fill="rgb(0%, 0%, 0%)" fill-opacity="0.15"/>
</g>
</mask>
<linearGradient id="linear-pattern-0" gradientUnits="userSpaceOnUse" x1="49.570999" y1="52.714001" x2="51.714001" y2="54.856998" gradientTransform="matrix(2.3333, 0, 0, 2.3333, -68.667, -72.000999)">
<stop offset="0" stop-color="rgb(0%, 0%, 0%)" stop-opacity="1"/>
<stop offset="1" stop-color="rgb(0%, 0%, 0%)" stop-opacity="0"/>
</linearGradient>
<clipPath id="clip-0">
<rect x="0" y="0" width="64" height="64"/>
</clipPath>
<g id="source-2194" clip-path="url(#clip-0)">
<path fill-rule="evenodd" fill="url(#linear-pattern-0)" d="M 56 46 L 42 60 L 51 60 C 53.769531 60 56 57.769531 56 55 Z M 56 46 "/>
</g>
<mask id="mask-1">
<g filter="url(#filter-remove-color)">
<rect x="-6.4" y="-6.4" width="76.8" height="76.8" fill="rgb(0%, 0%, 0%)" fill-opacity="0.75"/>
</g>
</mask>
<clipPath id="clip-1">
<rect x="0" y="0" width="64" height="64"/>
</clipPath>
<g id="source-2198" clip-path="url(#clip-1)">
<path fill-rule="nonzero" fill="rgb(100%, 100%, 100%)" fill-opacity="1" d="M 24 22 C 23.449219 22 23 22.449219 23 23 L 21 23 L 21 44 L 43 44 L 43 23 L 41 23 C 41 22.449219 40.550781 22 40 22 L 35 22 C 34.449219 22 34 22.449219 34 23 L 31 23 C 31 22.449219 30.550781 22 30 22 Z M 24 23 L 30.449219 23 L 30.449219 24 L 24 24 Z M 35 23 L 40 23 L 40 24 L 35 24 Z M 22 27 L 42 27 L 42 43 L 22 43 Z M 24 29 L 24 34 L 25 34 L 25 32 L 31 32 L 31 34 L 32 34 L 32 29 L 31 29 L 31 31 L 25 31 L 25 29 Z M 32 36 L 32 41.25 L 33 41.25 L 33 39 L 39 39 L 39 41 L 40 41 L 40 36 L 39 36 L 39 38 L 33 38 L 33 36 Z M 32 36 "/>
</g>
</defs>
<path fill-rule="nonzero" fill="rgb(59.607843%, 38.431373%, 18.823529%)" fill-opacity="1" d="M 13 4 L 51 4 C 53.761719 4 56 6.238281 56 9 L 56 55 C 56 57.761719 53.761719 60 51 60 L 13 60 C 10.238281 60 8 57.761719 8 55 L 8 9 C 8 6.238281 10.238281 4 13 4 Z M 13 4 "/>
<g mask="url(#mask-0)">
<use xlink:href="#source-2194"/>
</g>
<g mask="url(#mask-1)">
<use xlink:href="#source-2198"/>
</g>
</svg>

<svg width="64" height="64" version="1.1" viewBox="0 0 64 64" xmlns="http://www.w3.org/2000/svg">
 <defs>
  <linearGradient id="a" x1="49.571" x2="51.714" y1="52.714" y2="54.857" gradientTransform="matrix(2.3333,0,0,2.3333,-68.667,-72.001)" gradientUnits="userSpaceOnUse">
   <stop offset="0"/>
   <stop stop-opacity="0" offset="1"/>
  </linearGradient>
 </defs>
 <g transform="scale(1)">
  <rect x="8" y="4" width="48" height="56" ry="5" fill="#986230" style="paint-order:stroke fill markers"/>
  <path d="m56 46-14 14h9c2.77 0 5-2.23 5-5z" fill="url(#a)" fill-rule="evenodd" opacity=".15" stroke-width="8.8191" style="paint-order:stroke fill markers"/>
 </g>
 <path d="m24 22a1 1 0 0 0-1 1h-2v21h22v-21h-2a1 1 0 0 0-1-1h-5a1 1 0 0 0-1 1h-3a1 1 0 0 0-1-1zm0 1h6.449v1h-6.449zm11 0h5v1h-5zm-13 4h20v16h-20zm2 2v5h1v-2h6v2h1v-5h-1v2h-6v-2zm8 7v5.25h1v-2.25h6v2h1v-5h-1v2h-6v-2z" color="#000000" color-rendering="auto" fill="#fff" image-rendering="auto" opacity=".75" shape-rendering="auto" solid-color="#000000" style="isolation:auto;mix-blend-mode:normal"/>
</svg>
